X:1
T:Brautlied
C:traditionell
A:Apetlon, Burgenland
S:gefunde\.in von Sepp Pichler im Jahrbuch des oesterreichischen Volksliedwerks, aufgezeichnet vo\.i K. M. Klier
Z:abc transcription Simon Wascher
F:http://simonwascher.info/
M:6/8
L:1/8
K:Gm
D |\
G2A Bcd | c3 z2A | G2^F G2A | \.i3-D2z |
Bcd cBc | d3 z2^F | G2d/c/ BcA | G3-G2 |]
